; G-Code generated by Simplify3D(R) Version 4.0.1
; Nov 11, 2019 at 10:37:36 AM
; Settings Summary
;   processName,LEO
;   applyToModels,Test01
;   profileName,LEO
;   profileVersion,2019-10-29 16:46:33
;   baseProfile,Default (modified)
;   printMaterial,PLA
;   printQuality,Medium
;   printExtruders,
;   extruderName,Primary Extruder
;   extruderToolheadNumber,0
;   extruderDiameter,0.4
;   extruderAutoWidth,1
;   extruderWidth,0.48
;   extrusionMultiplier,0.9
;   extruderUseRetract,1
;   extruderRetractionDistance,2
;   extruderExtraRestartDistance,0
;   extruderRetractionZLift,0
;   extruderRetractionSpeed,3000
;   extruderUseCoasting,0
;   extruderCoastingDistance,0.2
;   extruderUseWipe,0
;   extruderWipeDistance,5
;   primaryExtruder,0
;   layerHeight,0.2
;   topSolidLayers,3
;   bottomSolidLayers,3
;   perimeterOutlines,2
;   printPerimetersInsideOut,1
;   startPointOption,3
;   startPointOriginX,0
;   startPointOriginY,0
;   sequentialIslands,0
;   spiralVaseMode,0
;   firstLayerHeightPercentage,150
;   firstLayerWidthPercentage,100
;   firstLayerUnderspeed,0.5
;   useRaft,0
;   raftExtruder,0
;   raftTopLayers,3
;   raftBaseLayers,2
;   raftOffset,3
;   raftSeparationDistance,0.14
;   raftTopInfill,100
;   aboveRaftSpeedMultiplier,0.3
;   useSkirt,0
;   skirtExtruder,0
;   skirtLayers,1
;   skirtOutlines,2
;   skirtOffset,5
;   usePrimePillar,0
;   primePillarExtruder,999
;   primePillarWidth,12
;   primePillarLocation,7
;   primePillarSpeedMultiplier,1
;   useOozeShield,0
;   oozeShieldExtruder,999
;   oozeShieldOffset,2
;   oozeShieldOutlines,1
;   oozeShieldSidewallShape,1
;   oozeShieldSidewallAngle,30
;   oozeShieldSpeedMultiplier,1
;   infillExtruder,0
;   internalInfillPattern,Rectilinear
;   externalInfillPattern,Rectilinear
;   infillPercentage,20
;   outlineOverlapPercentage,25
;   infillExtrusionWidthPercentage,100
;   minInfillLength,5
;   infillLayerInterval,1
;   internalInfillAngles,45,-45
;   overlapInternalInfillAngles,0
;   externalInfillAngles,45,-45
;   generateSupport,0
;   supportExtruder,0
;   supportInfillPercentage,30
;   supportExtraInflation,0
;   supportBaseLayers,0
;   denseSupportExtruder,0
;   denseSupportLayers,0
;   denseSupportInfillPercentage,70
;   supportLayerInterval,1
;   supportHorizontalPartOffset,0.3
;   supportUpperSeparationLayers,1
;   supportLowerSeparationLayers,1
;   supportType,0
;   supportGridSpacing,4
;   maxOverhangAngle,45
;   supportAngles,0
;   temperatureName,Primary Extruder,Hotbed
;   temperatureNumber,0,0
;   temperatureSetpointCount,1,1
;   temperatureSetpointLayers,1,1
;   temperatureSetpointTemperatures,205,55
;   temperatureStabilizeAtStartup,1,1
;   temperatureHeatedBed,0,1
;   temperatureRelayBetweenLayers,0,0
;   temperatureRelayBetweenLoops,0,0
;   fanLayers,1,2
;   fanSpeeds,0,100
;   blipFanToFullPower,0
;   adjustSpeedForCooling,1
;   minSpeedLayerTime,15
;   minCoolingSpeedSlowdown,20
;   increaseFanForCooling,0
;   minFanLayerTime,45
;   maxCoolingFanSpeed,100
;   increaseFanForBridging,0
;   bridgingFanSpeed,100
;   use5D,1
;   relativeEdistances,0
;   allowEaxisZeroing,1
;   independentExtruderAxes,0
;   includeM10123,0
;   stickySupport,1
;   applyToolheadOffsets,0
;   gcodeXoffset,0
;   gcodeYoffset,0
;   gcodeZoffset,0
;   overrideMachineDefinition,1
;   machineTypeOverride,0
;   strokeXoverride,230
;   strokeYoverride,230
;   strokeZoverride,260
;   originOffsetXoverride,0
;   originOffsetYoverride,0
;   originOffsetZoverride,0
;   homeXdirOverride,-1
;   homeYdirOverride,-1
;   homeZdirOverride,-1
;   flipXoverride,1
;   flipYoverride,-1
;   flipZoverride,1
;   toolheadOffsets,0,0|0,0|0,0|0,0|0,0|0,0
;   overrideFirmwareConfiguration,0
;   firmwareTypeOverride,RepRap (Marlin/Repetier/Sprinter)
;   GPXconfigOverride,r2
;   baudRateOverride,115200
;   overridePrinterModels,0
;   printerModelsOverride
;   startingGcode,M140 S[bed0_temperature] ; Set bed temp and do not wait - preheat,M104 S150; Set extruder and do not wait - preheat,G28 ; home all axes,G29,G1 X10 Y2 Z20 F9000,M190 S[bed0_temperature] ; Set bed temp and wait to be reached,M109 S[extruder0_temperature] ; Set extruder temp and wait to be reached,G1 Z5 F2000 ; go down,G1 X30 Y2 F9000 ; go to front,G1 Z0.2 F3000 ; get ready to prime,G92 E0 ; reset extrusion distance,G1 X105 E15 F600 ; draw prime line,G92 E0 ; reset extrusion distance,G1 X145 F5000 ; quick wipe 
;   layerChangeGcode,
;   retractionGcode,
;   toolChangeGcode,
;   endingGcode,M104 S0 ; turn off extruder,M140 S0 ; turn off bed,M107 ; fan0 off,G28 X0 ;,M84 ; disable motors,
;   exportFileFormat,gcode
;   celebration,0
;   celebrationSong,Take On Me
;   postProcessing,
;   defaultSpeed,3600
;   outlineUnderspeed,0.5
;   solidInfillUnderspeed,0.8
;   supportUnderspeed,0.8
;   rapidXYspeed,7200
;   rapidZspeed,1002
;   minBridgingArea,50
;   bridgingExtraInflation,0
;   bridgingExtrusionMultiplier,1
;   bridgingSpeedMultiplier,1
;   useFixedBridgingAngle,0
;   fixedBridgingAngle,0
;   applyBridgingToPerimeters,0
;   filamentDiameters,1.75|1.75|1.75|1.75|1.75|1.75
;   filamentPricesPerKg,50|46|46|46|46|46
;   filamentDensities,1.25|1.25|1.25|1.25|1.25|1.25
;   useMinPrintHeight,0
;   minPrintHeight,0
;   useMaxPrintHeight,0
;   maxPrintHeight,20
;   useDiaphragm,0
;   diaphragmLayerInterval,20
;   robustSlicing,1
;   mergeAllIntoSolid,0
;   onlyRetractWhenCrossingOutline,1
;   retractBetweenLayers,1
;   useRetractionMinTravel,0
;   retractionMinTravel,3
;   retractWhileWiping,0
;   onlyWipeOutlines,1
;   avoidCrossingOutline,0
;   maxMovementDetourFactor,3
;   toolChangeRetractionDistance,12
;   toolChangeExtraRestartDistance,-0.5
;   toolChangeRetractionSpeed,600
;   externalThinWallType,0
;   internalThinWallType,2
;   thinWallAllowedOverlapPercentage,10
;   singleExtrusionMinLength,1
;   singleExtrusionMinPrintingWidthPercentage,50
;   singleExtrusionMaxPrintingWidthPercentage,200
;   singleExtrusionEndpointExtension,0.2
;   horizontalSizeCompensation,0
G90
M82
M106 S0
M140 S55 ; Set bed temp and do not wait - preheat
M104 S150; Set extruder and do not wait - preheat
G28 ; home all axes
G29
G1 X10 Y2 Z20 F9000
M190 S55 ; Set bed temp and wait to be reached
M109 S205 ; Set extruder temp and wait to be reached
G1 Z5 F2000 ; go down
G1 X30 Y2 F9000 ; go to front
G1 Z0.2 F3000 ; get ready to prime
G92 E0 ; reset extrusion distance
G1 X105 E15 F600 ; draw prime line
G92 E0 ; reset extrusion distance
G1 X145 F5000 ; quick wipe 
G92 E0
G1 E-2.0000 F3000
G1 Z0.300 F1002
; process LEO
; layer 1, Z = 0.300
T0
; tool H0.300 W0.480
; inner perimeter
G1 X73.220 Y105.818 F7200
G1 E0.0000 F900
G92 E0
G1 X93.220 Y105.818 E1.0776 F1350
G1 X93.220 Y103.641 E1.1950
G1 X94.717 Y102.641 E1.2919
G1 X95.780 Y102.646 E1.3492
G1 X95.780 Y106.108 E1.5358
G1 X119.220 Y106.108 E2.7988
G1 X119.220 Y102.649 E2.9851
G1 X165.282 Y102.640 E5.4670
G1 X166.780 Y103.641 E5.5641
G1 X166.780 Y126.359 E6.7882
G1 X165.282 Y127.360 E6.8853
G1 X119.220 Y127.351 E9.3671
G1 X119.220 Y123.895 E9.5533
G1 X95.780 Y123.895 E10.8163
G1 X95.780 Y127.354 E11.0027
G1 X94.717 Y127.359 E11.0600
G1 X93.220 Y126.359 E11.1570
G1 X93.220 Y121.110 E11.4398
G1 X73.220 Y121.110 E12.5174
G1 X73.220 Y105.818 E13.3414
; outer perimeter
G1 X72.740 Y105.338 F7200
G92 E0
G1 X92.740 Y105.338 E1.0776 F900
G1 X92.740 Y103.384 E1.1829
G1 X94.572 Y102.160 E1.3017
G1 X96.260 Y102.168 E1.3926
G1 X96.260 Y105.628 E1.5790
G1 X118.740 Y105.628 E2.7903
G1 X118.740 Y102.170 E2.9766
G1 X165.427 Y102.160 E5.4922
G1 X167.260 Y103.384 E5.6109
G1 X167.260 Y126.616 E6.8627
G1 X165.427 Y127.840 E6.9815
G1 X118.740 Y127.830 E9.4970
G1 X118.740 Y124.375 E9.6832
G1 X96.260 Y124.375 E10.8945
G1 X96.260 Y127.832 E11.0807
G1 X94.572 Y127.840 E11.1717
G1 X92.740 Y126.616 E11.2904
G1 X92.740 Y121.590 E11.5612
G1 X72.740 Y121.590 E12.6388
G1 X72.740 Y105.338 E13.5145
; inner perimeter
G1 X99.306 Y110.586 F7200
G92 E0
G1 X99.306 Y120.026 E0.5086 F1350
G1 X108.643 Y120.026 E1.0118
G1 X108.643 Y116.047 E1.2262
G1 X110.690 Y115.138 E1.3468
G1 X110.690 Y120.026 E1.6102
G1 X113.669 Y120.026 E1.7707
G1 X113.669 Y110.586 E2.2793
G1 X111.224 Y110.586 E2.4111
G1 X110.991 Y111.178 E2.4453
G1 X110.849 Y111.445 E2.4616
G1 X110.653 Y111.709 E2.4794
G1 X110.369 Y111.985 E2.5007
G1 X109.723 Y112.442 E2.5433
G1 X108.643 Y112.944 E2.6075
G1 X108.643 Y110.586 E2.7345
G1 X104.757 Y110.586 E2.9439
G1 X104.144 Y113.071 E3.0818
G1 X103.805 Y113.071 E3.1001
G1 X103.192 Y110.586 E3.2380
G1 X99.306 Y110.586 E3.4474
; outer perimeter
G1 X99.786 Y111.066 F7200
G92 E0
G1 X99.786 Y119.546 E0.4569 F900
G1 X101.802 Y119.546 E0.5656
G1 X101.839 Y114.982 E0.8115
G1 X102.927 Y119.546 E1.0643
G1 X105.021 Y119.546 E1.1771
G1 X106.109 Y114.982 E1.4299
G1 X106.147 Y119.546 E1.6758
G1 X108.163 Y119.546 E1.7845
G1 X108.163 Y111.066 E2.2414
G1 X105.133 Y111.066 E2.4047
G1 X103.974 Y115.761 E2.6652
G1 X102.816 Y111.066 E2.9258
G1 X99.786 Y111.066 E3.0891
G92 E0
G1 E-2.0000 F3000
G1 X109.222 Y113.204 F7200
G1 E0.0000 F3000
G92 E0
G1 X109.222 Y115.265 E0.1110 F900
G1 X110.172 Y114.843 E0.1671
G1 X110.900 Y114.386 E0.2134
G1 X111.170 Y114.146 E0.2329
G1 X111.170 Y119.546 E0.5239
G1 X113.189 Y119.546 E0.6326
G1 X113.189 Y111.066 E1.0895
G1 X111.551 Y111.066 E1.1778
G1 X111.428 Y111.380 E1.1959
G1 X111.256 Y111.702 E1.2156
G1 X111.015 Y112.027 E1.2374
G1 X110.677 Y112.355 E1.2628
G1 X109.965 Y112.859 E1.3098
G1 X109.222 Y113.204 E1.3539
; gap fill
G1 X108.779 Y113.283 F7200
G92 E0
G1 X108.857 Y113.360 E0.0059 F1440
G1 X108.857 Y114.039 E0.0425
G1 X108.528 Y113.710 E0.0675
G1 X108.528 Y114.389 E0.1041
G1 X108.857 Y114.718 E0.1292
G1 X108.857 Y115.397 E0.1658
G1 X108.528 Y115.068 E0.1908
G92 E0
G1 E-2.0000 F3000
G1 X105.685 Y118.335 F7200
G1 E0.0000 F3000
G92 E0
G1 X105.773 Y118.422 E0.0067 F1440
G1 X105.778 Y119.106 E0.0435
G1 X105.554 Y118.883 E0.0606
G1 X105.424 Y119.431 E0.0909
G1 X105.654 Y119.661 E0.1085
G1 X102.260 Y119.661 F7200
G92 E0
G1 X102.167 Y119.568 E0.0071 F1440
G1 X102.172 Y118.895 E0.0434
G1 X102.467 Y119.190 E0.0659
G1 X102.255 Y118.298 E0.1153
G1 X102.178 Y118.221 E0.1212
G92 E0
G1 E-2.0000 F3000
G1 X104.040 Y113.974 F7200
G1 E0.0000 F3000
G92 E0
G1 X103.867 Y113.801 E0.0132 F1440
; solid layer
G1 X103.849 Y111.747 F7200
G92 E0
G1 X104.050 Y111.948 E0.0153 F1440
G1 X104.184 Y111.403 E0.0455
G1 X103.627 Y110.846 E0.0880
G1 X109.003 Y110.791 F7200
G92 E0
G1 X110.010 Y111.798 E0.0767 F1440
G1 X109.612 Y112.079 E0.1030
G1 X109.003 Y111.470 E0.1494
G1 X109.003 Y112.149 E0.1860
G1 X109.161 Y112.306 E0.1980
G92 E0
G1 E-2.0000 F3000
G1 X110.330 Y116.191 F7200
G1 E0.0000 F3000
G92 E0
G1 X109.984 Y115.845 E0.0264 F1440
G1 X109.514 Y116.054 E0.0541
G1 X110.330 Y116.870 E0.1163
G1 X110.330 Y117.549 E0.1528
G1 X109.044 Y116.263 E0.2508
G1 X109.003 Y116.281 E0.2533
G1 X109.003 Y116.901 E0.2867
G1 X110.330 Y118.228 E0.3878
G1 X110.330 Y118.907 E0.4244
G1 X109.003 Y117.580 E0.5255
G1 X109.003 Y118.258 E0.5621
G1 X110.330 Y119.586 E0.6632
G1 X110.330 Y120.264 E0.6998
G1 X109.003 Y118.937 E0.8009
G1 X109.003 Y119.616 E0.8375
G1 X112.922 Y123.535 E1.1361
G1 X113.601 Y123.535 E1.1727
G1 X110.452 Y120.386 E1.4126
G1 X111.131 Y120.386 E1.4492
G1 X114.280 Y123.535 E1.6891
G1 X114.958 Y123.535 E1.7257
G1 X111.810 Y120.386 E1.9656
G1 X112.489 Y120.386 E2.0022
G1 X115.637 Y123.535 E2.2421
G1 X116.316 Y123.535 E2.2787
G1 X113.167 Y120.386 E2.5186
G1 X113.846 Y120.386 E2.5552
G1 X116.995 Y123.535 E2.7951
G1 X117.674 Y123.535 E2.8317
G1 X114.029 Y119.890 E3.1095
G1 X114.029 Y119.211 E3.1460
G1 X118.353 Y123.535 E3.4755
G1 X119.031 Y123.535 E3.5121
G1 X114.029 Y118.532 E3.8933
G1 X114.029 Y117.853 E3.9299
G1 X123.167 Y126.991 E4.6262
G1 X123.846 Y126.991 E4.6628
G1 X114.029 Y117.175 E5.4108
G1 X114.029 Y116.496 E5.4474
G1 X124.525 Y126.992 E6.2472
G1 X125.204 Y126.992 E6.2838
G1 X114.029 Y115.817 E7.1353
G1 X114.029 Y115.138 E7.1719
G1 X125.883 Y126.992 E8.0751
G1 X126.561 Y126.992 E8.1117
G1 X114.029 Y114.459 E9.0667
G1 X114.029 Y113.780 E9.1033
G1 X127.240 Y126.992 E10.1100
G1 X127.919 Y126.992 E10.1466
G1 X114.029 Y113.102 E11.2050
G1 X114.029 Y112.423 E11.2416
G1 X128.598 Y126.992 E12.3518
G1 X129.277 Y126.993 E12.3884
G1 X114.029 Y111.744 E13.5503
G1 X114.029 Y111.065 E13.5869
G1 X129.956 Y126.993 E14.8006
G1 X130.635 Y126.993 E14.8372
G1 X114.029 Y110.386 E16.1026
G92 E0
G1 E-2.0000 F3000
G1 X109.003 Y120.295 F7200
G1 E0.0000 F3000
G92 E0
G1 X112.243 Y123.535 E0.2469 F1440
G1 X111.564 Y123.535 E0.2835
G1 X108.416 Y120.386 E0.5234
G1 X107.737 Y120.386 E0.5600
G1 X110.886 Y123.535 E0.7999
G1 X110.207 Y123.535 E0.8365
G1 X107.058 Y120.386 E1.0764
G1 X106.379 Y120.386 E1.1130
G1 X109.528 Y123.535 E1.3529
G1 X108.849 Y123.535 E1.3895
G1 X105.700 Y120.386 E1.6294
G1 X105.021 Y120.386 E1.6660
G1 X108.170 Y123.535 E1.9059
G1 X107.491 Y123.535 E1.9425
G1 X104.343 Y120.386 E2.1824
G1 X103.664 Y120.386 E2.2190
G1 X106.813 Y123.535 E2.4590
G1 X106.134 Y123.535 E2.4955
G1 X102.985 Y120.386 E2.7355
G1 X102.306 Y120.386 E2.7720
G1 X105.455 Y123.535 E3.0120
G1 X104.776 Y123.535 E3.0485
G1 X101.627 Y120.386 E3.2885
G1 X100.949 Y120.386 E3.3251
G1 X104.097 Y123.535 E3.5650
G1 X103.418 Y123.535 E3.6016
G1 X100.270 Y120.386 E3.8415
G1 X93.580 Y121.163 F7200
G92 E0
G1 X95.951 Y123.535 E0.1807 F1440
G1 X95.420 Y123.535 E0.2093
G1 X95.420 Y123.682 E0.2173
G1 X93.580 Y121.842 E0.3575
G1 X93.580 Y122.521 E0.3941
G1 X95.420 Y124.361 E0.5343
G1 X95.420 Y125.040 E0.5708
G1 X93.580 Y123.200 E0.7111
G1 X93.580 Y123.879 E0.7476
G1 X95.420 Y125.719 E0.8878
G1 X95.420 Y126.398 E0.9244
G1 X93.580 Y124.558 E1.0646
G1 X93.580 Y125.236 E1.1012
G1 X95.340 Y126.996 E1.2353
G1 X94.825 Y126.998 E1.2630
G1 X94.338 Y126.673 E1.2946
G1 X93.580 Y125.915 E1.3523
G92 E0
G1 E-2.0000 F3000
G1 X74.160 Y120.750 F7200
G1 E0.0000 F3000
G92 E0
G1 X73.580 Y120.170 E0.0442 F1440
G1 X73.580 Y119.492 E0.0807
G1 X74.838 Y120.750 E0.1766
G1 X75.517 Y120.750 E0.2132
G1 X73.580 Y118.813 E0.3608
G1 X73.580 Y118.134 E0.3974
G1 X76.196 Y120.750 E0.5968
G1 X76.875 Y120.750 E0.6333
G1 X73.580 Y117.455 E0.8844
G1 X73.580 Y116.776 E0.9210
G1 X77.554 Y120.750 E1.2238
G1 X78.233 Y120.750 E1.2604
G1 X73.580 Y116.098 E1.6149
G1 X73.580 Y115.419 E1.6515
G1 X78.911 Y120.750 E2.0577
G1 X79.590 Y120.750 E2.0943
G1 X73.580 Y114.740 E2.5523
G1 X73.580 Y114.061 E2.5888
G1 X80.269 Y120.750 E3.0985
G1 X80.948 Y120.750 E3.1351
G1 X73.580 Y113.382 E3.6965
G1 X73.580 Y112.703 E3.7331
G1 X81.627 Y120.750 E4.3463
G1 X82.305 Y120.750 E4.3828
G1 X73.580 Y112.025 E5.0477
G1 X73.580 Y111.346 E5.0843
G1 X82.984 Y120.750 E5.8009
G1 X83.663 Y120.750 E5.8375
G1 X73.580 Y110.667 E6.6058
G1 X73.580 Y109.988 E6.6424
G1 X84.342 Y120.750 E7.4625
G1 X85.021 Y120.750 E7.4990
G1 X73.580 Y109.309 E8.3708
G1 X73.580 Y108.631 E8.4074
G1 X85.700 Y120.750 E9.3309
G1 X86.378 Y120.750 E9.3675
G1 X73.580 Y107.952 E10.3427
G1 X73.580 Y107.273 E10.3793
G1 X87.057 Y120.750 E11.4063
G1 X87.736 Y120.750 E11.4428
G1 X73.580 Y106.594 E12.5215
G1 X73.580 Y106.178 E12.5439
G1 X73.843 Y106.178 E12.5581
G1 X88.415 Y120.750 E13.6685
G1 X89.094 Y120.750 E13.7050
G1 X74.522 Y106.178 E14.8154
G1 X75.201 Y106.178 E14.8520
G1 X89.773 Y120.750 E15.9623
G1 X90.451 Y120.750 E15.9989
G1 X75.880 Y106.178 E17.1093
G1 X76.559 Y106.178 E17.1458
G1 X91.130 Y120.750 E18.2562
G1 X91.809 Y120.750 E18.2928
G1 X77.237 Y106.178 E19.4031
G1 X77.916 Y106.178 E19.4397
G1 X92.488 Y120.750 E20.5501
G1 X93.167 Y120.750 E20.5867
G1 X78.595 Y106.178 E21.6970
G1 X79.274 Y106.178 E21.7336
G1 X96.630 Y123.535 E23.0561
G1 X97.309 Y123.535 E23.0927
G1 X79.953 Y106.178 E24.4153
G1 X80.631 Y106.178 E24.4519
G1 X97.988 Y123.535 E25.7744
G1 X98.667 Y123.535 E25.8110
G1 X81.310 Y106.178 E27.1335
G1 X81.989 Y106.178 E27.1701
G1 X99.346 Y123.535 E28.4927
G1 X100.024 Y123.535 E28.5293
G1 X82.668 Y106.178 E29.8518
G1 X83.347 Y106.178 E29.8884
G1 X100.703 Y123.535 E31.2109
G1 X101.382 Y123.535 E31.2475
G1 X84.026 Y106.178 E32.5701
G1 X84.704 Y106.178 E32.6067
G1 X102.061 Y123.535 E33.9292
G1 X102.740 Y123.535 E33.9658
G1 X99.591 Y120.386 E34.2057
G1 X98.946 Y120.386 E34.2405
